X: 31
T:Malungsschottis
M:4/4
L:1/8
Q:130
C:e. Olla Olof
S:
R:Schottis
O:Sweden
A:Dalarna
N:Upptecknad av Christoffer Boije
K:D
AAde fgfd | ecAc d2 d2 | AAdf a>baf | gfgb a2 a2 |\
afde fgfd | ecAc d2 d2 | AAce gAce | d2 f2 d2 z2 ::
gdBd g2 g2 | fdAd f2 f2 | ecAc eAce | dcdf a2 a2 |\
gdBd g2 g2 | fdAd f2 f2 | ecAc eAce | d2 f2 d2 z2 :||
